icons/svg/shields/h_barrier_kissing_gate_shield.svg

<?xml version="1.0" encoding="UTF-8" standalone="no"?>
<!-- Created with Inkscape (http://www.inkscape.org/) -->

<svg
   xmlns:dc="http://purl.org/dc/elements/1.1/"
   xmlns:cc="http://creativecommons.org/ns#"
   xmlns:rdf="http://www.w3.org/1999/02/22-rdf-syntax-ns#"
   xmlns:svg="http://www.w3.org/2000/svg"
   xmlns="http://www.w3.org/2000/svg"
   xmlns:sodipodi="http://sodipodi.sourceforge.net/DTD/sodipodi-0.dtd"
   xmlns:inkscape="http://www.inkscape.org/namespaces/inkscape"
   version="1.0"
   width="16"
   height="16"
   id="svg2"
   sodipodi:version="0.32"
   inkscape:version="0.91 r13725"
   sodipodi:docname="h_barrier_kissing_gate_shield.svg"
   inkscape:output_extension="org.inkscape.output.svg.inkscape">
  <metadata
     id="metadata10">
    <rdf:RDF>
      <cc:Work
         rdf:about="">
        <dc:format>image/svg+xml</dc:format>
        <dc:type
           rdf:resource="http://purl.org/dc/dcmitype/StillImage" />
        <cc:license
           rdf:resource="http://web.resource.org/cc/PublicDomain" />
        <dc:language>en</dc:language>
        <dc:title />
      </cc:Work>
    </rdf:RDF>
  </metadata>
  <sodipodi:namedview
     inkscape:window-height="1006"
     inkscape:window-width="1920"
     inkscape:pageshadow="2"
     inkscape:pageopacity="0.0"
     guidetolerance="10.0"
     gridtolerance="10.0"
     objecttolerance="10.0"
     borderopacity="1.0"
     bordercolor="#666666"
     pagecolor="#ffffff"
     id="base"
     showgrid="false"
     inkscape:zoom="32"
     inkscape:cx="4.615583"
     inkscape:cy="8.0260345"
     inkscape:window-x="1920"
     inkscape:window-y="0"
     inkscape:current-layer="svg2"
     inkscape:window-maximized="1" />
  <defs
     id="defs4">
    <inkscape:perspective
       sodipodi:type="inkscape:persp3d"
       inkscape:vp_x="0 : 290 : 1"
       inkscape:vp_y="0 : 1000 : 0"
       inkscape:vp_z="580 : 290 : 1"
       inkscape:persp3d-origin="290 : 193.33333 : 1"
       id="perspective12" />
    <style
       type="text/css"
       id="style6">
   
    .fil0 {fill:#EF7900}
   
  </style>
    <inkscape:perspective
       id="perspective6807"
       inkscape:persp3d-origin="29.116032 : 19.410688 : 1"
       inkscape:vp_z="58.232063 : 29.116032 : 1"
       inkscape:vp_y="0 : 1000 : 0"
       inkscape:vp_x="0 : 29.116032 : 1"
       sodipodi:type="inkscape:persp3d" />
    <inkscape:perspective
       id="perspective6954"
       inkscape:persp3d-origin="290 : 193.33333 : 1"
       inkscape:vp_z="580 : 290 : 1"
       inkscape:vp_y="0 : 1000 : 0"
       inkscape:vp_x="0 : 290 : 1"
       sodipodi:type="inkscape:persp3d" />
    <inkscape:perspective
       id="perspective2541"
       inkscape:persp3d-origin="240 : 160 : 1"
       inkscape:vp_z="480 : 240 : 1"
       inkscape:vp_y="0 : 1000 : 0"
       inkscape:vp_x="0 : 240 : 1"
       sodipodi:type="inkscape:persp3d" />
    <inkscape:perspective
       id="perspective2750"
       inkscape:persp3d-origin="215 : 143.33333 : 1"
       inkscape:vp_z="430 : 215 : 1"
       inkscape:vp_y="0 : 1000 : 0"
       inkscape:vp_x="0 : 215 : 1"
       sodipodi:type="inkscape:persp3d" />
    <inkscape:perspective
       id="perspective3730"
       inkscape:persp3d-origin="88.929146 : 101.19778 : 1"
       inkscape:vp_z="177.85829 : 151.79668 : 1"
       inkscape:vp_y="0 : 1000 : 0"
       inkscape:vp_x="0 : 151.79668 : 1"
       sodipodi:type="inkscape:persp3d" />
  </defs>
  <path
     style="color:#000000;font-style:normal;font-variant:normal;font-weight:normal;font-stretch:normal;font-size:medium;line-height:normal;font-family:Sans;-inkscape-font-specification:Sans;text-indent:0;text-align:start;text-decoration:none;text-decoration-line:none;letter-spacing:normal;word-spacing:normal;text-transform:none;direction:ltr;block-progression:tb;writing-mode:lr-tb;baseline-shift:baseline;text-anchor:start;display:inline;overflow:visible;visibility:visible;opacity:0.81199999;fill:#ebe7e4;fill-opacity:1;fill-rule:nonzero;stroke:none;stroke-width:0.78325456;marker:none;enable-background:accumulate;clip-rule:nonzero;isolation:auto;mix-blend-mode:normal;color-interpolation:sRGB;color-interpolation-filters:linearRGB;solid-color:#000000;solid-opacity:1;stroke-linecap:butt;stroke-linejoin:miter;stroke-miterlimit:4;stroke-dasharray:none;stroke-dashoffset:0;stroke-opacity:1;filter-blend-mode:normal;filter-gaussianBlur-deviation:0;color-rendering:auto;image-rendering:auto;shape-rendering:auto;text-rendering:auto"
     d="M 7.1673396,1.3476808 C 5.8320672,1.3635368 4.58567,1.5040829 3.5778146,1.8298558 3.0501449,2.0004165 2.5581555,2.2001157 2.1312896,2.5263308 1.9129685,2.6931739 1.9011485,2.6917953 1.5854943,3.0855198 1.2698401,3.4792445 1.3053896,3.7839754 1.2104693,4.3679714 l -0.016742,7.3196846 c 0.003,-0.01958 -0.0015,0.126895 0,0.10715 -0.00696,0.294759 0.1123437,0.628379 0.1339375,0.723262 0.1650742,0.512777 0.4577314,0.941103 0.803625,1.205438 0.4268646,0.326213 0.9188538,0.525914 1.446525,0.696475 0.8717995,0.281795 1.9709429,0.428378 3.1341375,0.482175 0.00972,4.49e-4 0.017056,-4.31e-4 0.026787,0 0.6122313,-0.0021 0.8394764,0.06026 1.2590125,-0.05358 -0.025453,0.01267 0.1846477,-0.09573 0.160725,-0.08036 0.00945,0.0047 0.032254,0.02903 0.026787,0.02679 -0.027332,-0.01118 0.1891443,0.0616 0.160725,0.05357 0.3834533,0.04688 0.5717845,0.01441 0.8304125,0 0.018089,-0.0085 0.035956,-0.01739 0.053575,-0.02679 l 4.5270879,-1.526887 c -0.0198,0.0067 0.126358,-0.03501 0.10715,-0.02679 -0.01921,0.0082 0.125639,-0.06331 0.10715,-0.05357 -0.01849,0.0097 0.1248,-0.09154 0.10715,-0.08036 -0.01765,0.01119 0.09706,-0.06613 0.08036,-0.05358 -0.0167,0.01256 0.122791,-0.09422 0.10715,-0.08036 -0.01564,0.01385 0.09484,-0.09542 0.08036,-0.08036 -0.01448,0.01506 0.09359,-0.09653 0.08036,-0.08036 -0.01323,0.01618 0.09226,-0.12433 0.08036,-0.10715 -0.0119,0.01718 0.06406,-0.125226 0.05357,-0.10715 -0.01048,0.01808 0.06258,-0.126006 0.05358,-0.10715 -0.009,0.01886 0.06104,-0.126666 0.05358,-0.10715 -0.0075,0.01952 0.03267,-0.127201 0.02679,-0.10715 -0.0059,0.02005 0.03104,-0.127607 0.02679,-0.10715 -0.0043,0.02046 0.02939,-0.154669 0.02679,-0.133937 -0.0026,0.02074 9.43e-4,-0.128024 0,-0.10715 -7.02e-4,0.01565 -4.83e-4,-0.04482 0,-0.08036 l 0,-0.02679 0,-2.3037252 c -0.0046,0.024165 0.02913,-0.1852232 0.02679,-0.160725 -0.0023,0.024498 0,-0.1585469 0,-0.1339375 0,0.024609 -0.0023,-0.1584357 0,-0.1339375 0.0023,0.024498 -0.03144,-0.1848904 -0.02679,-0.160725 l 0,-1.9554875 0,-0.10715 c -6.99e-4,0.00923 -0.0011,-0.022582 0,-0.053575 0.0013,-0.034867 0.02679,-0.063987 0.02679,-0.053575 0,0.010412 -0.02549,-0.018707 -0.02679,-0.053575 l 0,-0.053575 c 0.0015,0.019611 -0.003,-0.1265927 0,-0.10715 l 0,-2.196575 0,-0.080362 c 3.59e-4,-0.046285 -6.22e-4,-0.094141 0,-0.080362 0.0013,0.027557 -0.0041,-0.1879966 0,-0.160725 0.0041,0.027272 -0.03379,-0.1874066 -0.02679,-0.160725 0.007,0.026682 -0.06336,-0.1865185 -0.05358,-0.160725 0.0098,0.025793 -0.09281,-0.1585546 -0.08036,-0.1339375 0.01245,0.024617 -0.06855,-0.1571032 -0.05358,-0.1339375 0.01497,0.023166 -0.124488,-0.155393 -0.10715,-0.1339375 0.01734,0.021456 -0.126655,-0.1266556 -0.10715,-0.10715 0.01951,0.019506 -0.128606,-0.1244876 -0.10715,-0.10715 0.02146,0.017338 -0.157103,-0.122126 -0.133937,-0.10715 0.02317,0.014976 -0.158555,-0.066022 -0.133938,-0.053575 0.02462,0.012447 -0.159731,-0.090142 -0.133937,-0.080363 0.02579,0.00978 -0.187407,-0.060577 -0.160725,-0.053575 0.02668,0.007 -0.187997,-0.030934 -0.160725,-0.026788 0.02727,0.00415 -0.188283,-0.00124 -0.160725,0 0.0046,2.074e-4 -0.02026,-2.126e-4 -0.02679,0 -0.0065,2.126e-4 -0.01359,-1.833e-4 -0.02679,0 0.01577,5.969e-4 -0.07891,3.581e-4 -0.10715,0 -0.007,-8.95e-5 -0.03073,1.492e-4 -0.02679,0 -0.128349,0.00534 -0.255757,0.032644 -0.375025,0.080363 0.02051,-0.00817 -0.1269,0.06345 -0.10715,0.053575 l -3.8573999,1.2858 0,-0.910775 c -0.0071,0.019026 0.05917,-0.1266703 0.053575,-0.10715 -0.00559,0.01952 0.030847,-0.1270463 0.026787,-0.10715 -0.00406,0.019896 0.029288,-0.1273017 0.026788,-0.10715 -0.0025,0.020152 9.258e-4,-0.1274352 0,-0.10715 -9.258e-4,0.020286 -6.549e-4,-0.1542332 0,-0.1339375 6.549e-4,0.020296 -0.00223,-0.1273334 0,-0.10715 0.00223,0.020184 -0.030582,-0.1270987 -0.026788,-0.10715 0.00379,0.019949 -0.032122,-0.1535307 -0.026787,-0.1339375 0.00533,0.019593 -0.033629,-0.126269 -0.026788,-0.10715 0.00684,0.019119 -0.061883,-0.1256791 -0.053575,-0.10715 0.00831,0.018529 -0.063299,-0.1249768 -0.053575,-0.10715 0.00972,0.017827 -0.064656,-0.097379 -0.053575,-0.080363 0.011081,0.017017 -0.092733,-0.1232533 -0.080362,-0.10715 0.01237,0.016103 -0.06716,-0.095455 -0.053575,-0.080362 0.013585,0.015092 -0.09508,-0.094353 -0.080362,-0.080363 0.014718,0.01399 -0.1229114,-0.093166 -0.10715,-0.080362 0.015761,0.012803 -0.097072,-0.091901 -0.080362,-0.080363 0.016709,0.011539 -0.1247062,-0.063779 -0.10715,-0.053575 0.017556,0.010204 -0.1254466,-0.062383 -0.10715,-0.053575 0.018297,0.00881 -0.1260761,-0.060934 -0.10715,-0.053575 0.018926,0.00736 -0.1265911,-0.032652 -0.10715,-0.026787 0.019441,0.00586 -0.1269883,-0.031122 -0.10715,-0.026787 -0.2311604,-0.036319 -0.4371332,0 -0.5625375,0 z"
     id="path4334"
     inkscape:connector-curvature="0"
     sodipodi:nodetypes="csszccccssccccccccccccccccccccccccccccssccccsccccccscscsccscsscccccccccccsccsssssssssssssssscccc" />
</svg>

<svg width="16" height="16" viewBox="0 0 16 16" fill="none" xmlns="http://www.w3.org/2000/svg">
<path opacity="0.812" d="M7.16733 1.34768C5.83206 1.36354 4.58566 1.50408 3.57781 1.82986C3.05014 2.00042 2.55815 2.20012 2.13128 2.52633C1.91296 2.69318 1.90114 2.6918 1.58549 3.08552C1.26983 3.47925 1.30538 3.78398 1.21046 4.36797L1.19372 11.6877C1.19672 11.6681 1.19222 11.8146 1.19372 11.7948C1.18676 12.0896 1.30606 12.4232 1.32766 12.5181C1.49273 13.0308 1.78539 13.4592 2.13128 13.7235C2.55815 14.0497 3.05014 14.2494 3.57781 14.42C4.44961 14.7018 5.54875 14.8484 6.71195 14.9022C6.72167 14.9026 6.729 14.9017 6.73873 14.9022C7.35096 14.9001 7.57821 14.9624 7.99775 14.8486C7.97229 14.8612 8.18239 14.7528 8.15847 14.7682C8.16792 14.7729 8.19072 14.7972 8.18526 14.795C8.15792 14.7838 8.3744 14.8566 8.34598 14.8486C8.72944 14.8955 8.91777 14.863 9.17639 14.8486C9.19448 14.8401 9.21235 14.8312 9.22997 14.8218L13.7571 13.2949C13.7373 13.3016 13.8834 13.2599 13.8642 13.2681C13.845 13.2763 13.9898 13.2048 13.9714 13.2145C13.9529 13.2242 14.0962 13.123 14.0785 13.1342C14.0609 13.1454 14.1756 13.0681 14.1589 13.0806C14.1422 13.0932 14.2817 12.9864 14.266 13.0002C14.2504 13.0141 14.3609 12.9048 14.3464 12.9199C14.3319 12.9349 14.44 12.8234 14.4267 12.8395C14.4135 12.8557 14.519 12.7152 14.5071 12.7324C14.4952 12.7496 14.5712 12.6071 14.5607 12.6252C14.5502 12.6433 14.6232 12.4992 14.6142 12.5181C14.6052 12.5369 14.6753 12.3914 14.6678 12.4109C14.6603 12.4304 14.7005 12.2837 14.6946 12.3038C14.6887 12.3238 14.7257 12.1762 14.7214 12.1966C14.7171 12.2171 14.7508 12.042 14.7482 12.0627C14.7456 12.0834 14.7491 11.9347 14.7482 11.9555C14.7475 11.9712 14.7477 11.9107 14.7482 11.8752V11.8484V9.54466C14.7436 9.56882 14.7773 9.35944 14.775 9.38393C14.7727 9.40843 14.775 9.22539 14.775 9.25C14.775 9.27461 14.7727 9.09156 14.775 9.11606C14.7773 9.14056 14.7435 8.93117 14.7482 8.95533V6.99985V6.8927C14.7475 6.90193 14.7471 6.87011 14.7482 6.83912C14.7495 6.80425 14.775 6.77513 14.775 6.78555C14.775 6.79596 14.7495 6.76684 14.7482 6.73197V6.6784C14.7497 6.69801 14.7452 6.5518 14.7482 6.57125V4.37467V4.29431C14.7486 4.24802 14.7476 4.20017 14.7482 4.21395C14.7495 4.2415 14.7441 4.02595 14.7482 4.05322C14.7523 4.08049 14.7144 3.86582 14.7214 3.8925C14.7284 3.91918 14.658 3.70598 14.6678 3.73177C14.6776 3.75757 14.575 3.57322 14.5875 3.59783C14.5999 3.62245 14.5189 3.44073 14.5339 3.4639C14.5489 3.48706 14.4094 3.3085 14.4267 3.32996C14.4441 3.35142 14.3001 3.2033 14.3196 3.22281C14.3391 3.24232 14.191 3.09832 14.2124 3.11566C14.2339 3.133 14.0553 2.99353 14.0785 3.00851C14.1017 3.02349 13.9199 2.94249 13.9446 2.95493C13.9692 2.96738 13.7848 2.86479 13.8106 2.87457C13.8364 2.88435 13.6232 2.81399 13.6499 2.821C13.6766 2.828 13.4619 2.79006 13.4892 2.79421C13.5164 2.79836 13.3009 2.79297 13.3285 2.79421C13.3331 2.79442 13.3082 2.794 13.3017 2.79421C13.2952 2.79442 13.2881 2.79403 13.2749 2.79421C13.2906 2.79481 13.196 2.79457 13.1677 2.79421C13.1607 2.79412 13.137 2.79436 13.1409 2.79421C13.0126 2.79955 12.8852 2.82685 12.7659 2.87457C12.7864 2.8664 12.639 2.93802 12.6588 2.92815L8.80136 4.21395V3.30317C8.79426 3.3222 8.86053 3.1765 8.85493 3.19602C8.84934 3.21554 8.88578 3.06898 8.88172 3.08887C8.87766 3.10877 8.91101 2.96157 8.90851 2.98172C8.90601 3.00187 8.90943 2.85429 8.90851 2.87457C8.90758 2.89486 8.90785 2.72034 8.90851 2.74063C8.90916 2.76093 8.90628 2.6133 8.90851 2.63348C8.91074 2.65367 8.87792 2.50639 8.88172 2.52633C8.88551 2.54628 8.8496 2.3728 8.85493 2.3924C8.86026 2.41199 8.8213 2.26613 8.82814 2.28525C8.83498 2.30437 8.76626 2.15957 8.77457 2.1781C8.78288 2.19663 8.71127 2.05312 8.72099 2.07095C8.73071 2.08877 8.65634 1.97357 8.66742 1.99058C8.6785 2.0076 8.57468 1.86733 8.58706 1.88343C8.59943 1.89954 8.5199 1.78798 8.53348 1.80307C8.54707 1.81816 8.4384 1.70872 8.45312 1.72271C8.46784 1.7367 8.33021 1.62954 8.34597 1.64235C8.36173 1.65515 8.2489 1.55045 8.26561 1.56198C8.28232 1.57352 8.1409 1.4982 8.15846 1.50841C8.17601 1.51861 8.03301 1.44603 8.05131 1.45483C8.0696 1.46364 7.92523 1.3939 7.94416 1.40126C7.96308 1.40862 7.81757 1.36861 7.83701 1.37447C7.85645 1.38033 7.71002 1.34335 7.72986 1.34768C7.4987 1.31137 7.29272 1.34768 7.16732 1.34768L7.16733 1.34768Z" fill="#EBE7E4"/>
</svg>
